!!!COM: Webern, Anton : von
!!!OPS: Opus 24
!!!OMV: Mov. 3
!!!OTL: Konzert
!!!XEN: Concerto
!!!YEC: Copyright 1995, David Huron & Brian Alegant
!!!YEM: This data is the property of David Huron and Brian Alegant, and is
!!!YEM: available by license only.  Refer to accompanying license agreement.
!!!YEM: This data may not be copied or translated to another format except in
!!!YEM: accordance with the license agreement.
!!!RDF1: U=mute
!! "Sehr rasch"
**kern	**kern	**kern	**kern	**kern	**kern	**kern	**kern	**kern	**kern	**kern
*ICklav	*ICklav	*ICklav	*ICstr	*ICstr	*ICbras	*ICbras	*ICbras	*ICww	*ICww	*ICww
*Ipiano	*Ipiano	*Ipiano	*Iviola	*Ivioln	*Itromb	*Itromp	*Icor	*Iclars	*Ioboe	*Iflt
*M2/2	*M2/2	*M2/2	*M2/2	*M2/2	*M2/2	*M2/2	*M2/2	*M2/2	*M2/2	*M2/2
*MM240	*MM240	*M240	*MM240	*MM240	*MM240	*MM240	*MM240	*MM240	*MM240	*MM240
*k[]	*k[]	*k[]	*k[]	*k[]	*k[]	*k[]	*k[]	*k[]	*k[]	*k[]
*X:	*X:	*X:	*X:	*X:	*X:	*X:	*X:	*X:	*X:	*X:
=1-	=1-	=1-	=1-	=1-	=1-	=1-	=1-	=1-	=1-	=1-
1r	1r	1r	1r	1r	1r	1r	2fn'U	1r	1r	1r
.	.	.	.	.	.	.	2F#'U	.	.	.
=2	=2	=2	=2	=2	=2	=2	=2	=2	=2	=2
1r	1r	1r	1r	1r	2C#'U	1r	2dn'U	1r	1r	1r
.	.	.	.	.	2An'U	.	2r	.	.	.
=3	=3	=3	=3	=3	=3	=3	=3	=3	=3	=3
1r	1r	1r	1r	1r	2BB-'U	1r	1r	4a'	1r	1r
.	.	.	.	.	.	.	.	8r	.	.
.	.	.	.	.	.	.	.	(8ccn	.	.
.	.	.	.	.	2r	.	.	4Bn)	.	.
.	.	.	.	.	.	.	.	4r	.	.
=4	=4	=4	=4	=4	=4	=4	=4	=4	=4	=4
1r	1r	1r	1r	1r	2r	1r	1r	1r	4een'	1r
.	.	.	.	.	.	.	.	.	8r	.
.	.	.	.	.	.	.	.	.	(8e-	.
.	.	.	.	.	2F#'U	.	.	.	4gn)	.
.	.	.	.	.	.	.	.	.	4r	.
=5	=5	=5	=5	=5	=5	=5	=5	=5	=5	=5
1r	1r	1r	1r	1r	(2BB-U	2r	1r	1r	1r	1r
.	.	.	.	.	2An)U	(2dnU	.	.	.	.
=6	=6	=6	=6	=6	=6	=6	=6	=6	=6	=6
2r	2r	1r	1r	1r	1r	2cc#)U	1r	1r	1r	1r
4EE-'	4r	.	.	.	.	2fn'U	.	.	.	.
4r	8r	.	.	.	.	.	.	.	.	.
.	(8En	.	.	.	.	.	.	.	.	.
=7	=7	=7	=7	=7	=7	=7	=7	=7	=7	=7
1r	4cn)	1r	1r	2r	1r	1r	1r	1r	1r	1r
.	4r	.	.	.	.	.	.	.	.	.
.	2r	.	.	4bbn'	.	.	.	.	.	.
.	.	.	.	8r	.	.	.	.	.	.
.	.	.	.	(8ggn	.	.	.	.	.	.
=8	=8	=8	=8	=8	=8	=8	=8	=8	=8	=8
1r	1r	1r	4An'	4a-)	1r	1r	1r	1r	1r	2r
.	.	.	8r	4r	.	.	.	.	.	.
.	.	.	(8C#	.	.	.	.	.	.	.
.	.	.	4cn)	2r	.	.	.	.	.	4fn'
.	.	.	4r	.	.	.	.	.	.	8r
.	.	.	.	.	.	.	.	.	.	(8een
=9	=9	=9	=9	=9	=9	=9	=9	=9	=9	=9
2F#'	1r	1r	1r	1r	1r	1r	1r	1r	1r	4g#)
.	.	.	.	.	.	.	.	.	.	4r
2GGn'	.	.	.	.	.	.	.	.	.	2r
=10	=10	=10	=10	=10	=10	=10	=10	=10	=10	=10
2E-'	2DDn'	1r	1r	1r	1r	1r	1r	1r	1r	1r
2r	2BB-'	.	.	.	.	.	.	.	.	.
=11	=11	=11	=11	=11	=11	=11	=11	=11	=11	=11
1r	2BBBn'	1r	1r	1r	1r	1r	1r	4cn'	2r	1r
.	.	.	.	.	.	.	.	8r	.	.
.	.	.	.	.	.	.	.	(8g#	.	.
.	2r	.	.	.	.	.	.	4aan)	4een'	.
.	.	.	.	.	.	.	.	4r	8r	.
.	.	.	.	.	.	.	.	.	(8fn	.
=12	=12	=12	=12	=12	=12	=12	=12	=12	=12	=12
4EE-'	4r	1r	1r	1r	1r	2r	1r	1r	4d-)	1r
4r	8r	.	.	.	.	.	.	.	4r	.
.	(8Dn	.	.	.	.	.	.	.	.	.
2r	4F#)	.	.	.	.	4r	.	.	2r	.
.	4r	.	.	.	.	4gn'U	.	.	.	.
!! poco rit. - -
=13	=13	=13	=13	=13	=13	=13	=13	=13	=13	=13
1r	1r	1r	1r	1r	1r	8r	1r	1r	1r	1r
.	.	.	.	.	.	(8bnU	.	.	.	.
.	.	.	.	.	.	4bb-U)	.	.	.	.
.	.	.	.	.	.	2r	.	.	.	.
!! etwas maessiger
=14	=14	=14	=14	=14	=14	=14	=14	=14	=14	=14
1r	1r	1r	1r	1r	2AAnz'U	1r	1r	2F#z'	1r	2fnz'
.	.	.	.	.	2BB-'U	.	.	2Dn'	.	2d-'
=15	=15	=15	=15	=15	=15	=15	=15	=15	=15	=15
1r	1r	1r	1r	2r	2BBn'U	1r	1r	2E-'	1r	2cn'
.	.	.	.	4r	2r	.	.	2r	.	2r
!	!	!	!	!G-Saite	!	!	!	!	!	!
.	.	.	.	4en'	.	.	.	.	.	.
=16	=16	=16	=16	=16	=16	=16	=16	=16	=16	=16
4r	4r	4r	1r	8r	1r	1r	1r	1r	1r	1r
.	.	.	.	(8G#	.	.	.	.	.	.
(2GG-z	(2BB-z	(2aanz	.	4gn)	.	.	.	.	.	.
.	.	.	.	2r	.	.	.	.	.	.
4FFn')	4Dn')	4c#')	.	.	.	.	.	.	.	.
=17	=17	=17	=17	=17	=17	=17	=17	=17	=17	=17
4r	4r	4r	2r	1r	1r	1r	1r	1r	1r	1r
4EEnz'	4E-z'	4cnz'	.	.	.	.	.	.	.	.
2r	2r	2r	4Bn'	.	.	.	.	.	.	.
.	.	.	8r	.	.	.	.	.	.	.
.	.	.	(8gn	.	.	.	.	.	.	.
=18	=18	=18	=18	=18	=18	=18	=18	=18	=18	=18
1r	1r	1r	4G#)	1r	4r	1r	1r	4r	1r	4r
.	.	.	4r	.	(2AAnzU	.	.	(2G#z	.	(2cnz
.	.	.	2r	.	.	.	.	.	.	.
.	.	.	.	.	4FFn'U)	.	.	4En')	.	4c#')
=19	=19	=19	=19	=19	=19	=19	=19	=19	=19	=19
2r	2r	2r	1r	4r	4r	1r	1r	4r	1r	4r
!	!	!	!	!G-Saite	!	!	!	!	!	!
.	.	.	.	4b-'	4FF#z'U	.	.	4D#z'	.	4dnz'
4r	4r	4r	.	8r	2r	.	.	2r	.	2r
.	.	.	.	(8Bn	.	.	.	.	.	.
4AA-'	4Fn'	4en'	.	4gn)	.	.	.	.	.	.
=20	=20	=20	=20	=20	=20	=20	=20	=20	=20	=20
4AAn'	4C#'	4cn'	1r	1r	1r	1r	1r	1r	4r	1r
4BB-'	4Dn'	4Bn'	.	.	.	.	.	.	4ee-'	.
4r	4r	4r	.	.	.	.	.	.	8r	.
.	.	.	.	.	.	.	.	.	(8Gn	.
4FFn'	4AAn'	4G#'	.	.	.	.	.	.	4ff#)	.
=21	=21	=21	=21	=21	=21	=21	=21	=21	=21	=21
4EEn'	4C#'	4cn'	4r	1r	1r	1r	1r	1r	1r	1r
4EE-'	4Dn'	4Bn'	4b-'	.	.	.	.	.	.	.
4r	4r	4r	8r	.	.	.	.	.	.	.
.	.	.	(8ff#	.	.	.	.	.	.	.
4AA-'	4Cn'	4Bn'	4gn)	.	.	.	.	.	.	.
=22	=22	=22	=22	=22	=22	=22	=22	=22	=22	=22
4GGn'	4En'	4e-'	1r	1r	2r	4r	1r	2r	1r	2r
4FF#'	4Fn'	4dn'	.	.	.	4cc#'U	.	.	.	.
2r	2r	2r	.	.	4r	8r	.	4r	.	4r
.	.	.	.	.	.	(8aanU	.	.	.	.
.	.	.	.	.	4BBn'U	4b-U)	.	4G#'	.	4gn'
=23	=23	=23	=23	=23	=23	=23	=23	=23	=23
2r	2r	2r	1r	1r	4Cn'U	1r	1r	4En'	4r	4e-'
.	.	.	.	.	4C#'U	.	.	4Fn'	4ff#'	4dn'
4r	4r	4r	.	.	2r	.	.	2r	8r	2r
.	.	.	.	.	.	.	.	.	(8b-	.
4GG#'	4Gn'	4Bn'	.	.	.	.	.	.	4aan)	.
=24	=24	=24	=24	=24	=24	=24	=24	=24	=24	=24
4Cn'	4En'	4e-'	1r	1r	2r	4r	1r	2r	1r	2r
4C#'	4Fn'	4dn'	.	.	.	4aan'U	.	.	.	.
2r	2r	2r	.	.	4r	8r	.	4r	.	4r
.	.	.	.	.	.	(8b-U	.	.	.	.
.	.	.	.	.	4GGnz'U	4ff#U)	.	4Enz'	.	4e-z'
=25	=25	=25	=25	=25	=25	=25	=25	=25	=25	=25
4r	4r	4r	1r	2r	1r	1r	1r	1r	1r	1r
(2GG#z	(2Cnz	(2Bnz	.	.	.	.	.	.	.	.
.	.	.	.	4r	.	.	.	.	.	.
4AAn')	4C#')	4B-')	.	4ddn'	.	.	.	.	.	.
=26	=26	=26	=26	=26	=26	=26	=26	=26	=26	=26
1r	1r	1r	1r	8r	2r	1r	1r	2r	1r	2r
.	.	.	.	(8f#	.	.	.	.	.	.
.	.	.	.	4ffn)	.	.	.	.	.	.
.	.	.	.	2r	4r	.	.	4r	.	4r
.	.	.	.	.	4Enz'U	.	.	4e-z'	.	4gnz'
=27	=27	=27	=27	=27	=27	=27	=27	=27	=27	=27
!! poco rit. - - -
4r	4r	4r	2r	1r	1r	1r	1r	1r	1r	1r
(4Cn	(4Bn	(4g#	.	.	.	.	.	.	.	.
4C#z'),	4B-z'),	4anz'),	4ffn',	.	.	.	.	.	.	.
4r	4r	4r	8r	.	.	.	.	.	.	.
.	.	.	(8F#	.	.	.	.	.	.	.
!! tempo I.
=28	=28	=28	=28	=28	=28	=28	=28	=28	=28	=28
4r	2r	1r	4ddn)	1r	1r	1r	1r	1r	1r	1r
2EE-~	.	.	4r	.	.	.	.	.	.	.
.	.	.	2r	.	.	.	.	.	.	.
(4Gn	(4f#	.	.	.	.	.	.	.	.	.
=29	=29	=29	=29	=29	=29	=29	=29	=29	=29	=29
2BBn)	2B-)	1r	1r	1r	1r	(2ddnU	1r	1r	1r	1r
4CCnz'	4r	.	.	.	.	4c#U)	.	.	.	.
4An'	4g#'	.	.	.	.	4r	.	.	.	.
=30	=30	=30	=30	=30	=30	=30	=30	=30	=30	=30
4r	4r	1r	1r	1r	1r	1r	1r	4r	1r	1r
4Fn'	4en'	.	.	.	.	.	.	(2ee-	.	.
2r	2r	.	.	.	.	.	.	.	.	.
.	.	.	.	.	.	.	.	4dn)	.	.
=31	=31	=31	=31	=31	=31	=31	=31	=31	=31	=31
4r	2r	1r	1r	2r	1r	1r	1r	1r	2ff#~	1r
4GGn'	.	.	.	.	.	.	.	.	.	.
(2Bn	(2b-	.	.	4r	.	.	.	.	2r	.
.	.	.	.	4cccnz'	.	.	.	.	.	.
=32	=32	=32	=32	=32	=32	=32	=32	=32	=32	=32
4An)	4g#)	1r	1r	4r	1r	1r	1r	1r	1r	2r
4r	4r	.	.	4EEn'	.	.	.	.	.	.
2r	4r	.	.	2r	.	.	.	.	.	(4fn
.	4CC#z'	.	.	.	.	.	.	.	.	4ddn
=33	=33	=33	=33	=33	=33	=33	=33	=33	=33	=33
4B-'	4an'	1r	1r	1r	1r	1r	1r	1r	2r	4ff#)
2A-~	2gn~	.	.	.	.	.	.	.	.	4r
.	.	.	.	.	.	.	.	.	4r	2r
4r	4r	.	.	.	.	.	.	.	4bbnz'	.
=34	=34	=34	=34	=34	=34	=34	=34	=34	=34	=34
4r	4r	1r	1r	2r	1r	1r	1r	1r	2cn~	1r
(4En	(4e-	.	.	.	.	.	.	.	.	.
4A-)	4gn)	.	.	4r	.	.	.	.	2r	.
4Cn'	4Bn'	.	.	4ccc#z'	.	.	.	.	.	.
=35	=35	=35	=35	=35	=35	=35	=35	=35	=35	=35
4r	4r	1r	1r	4an'	1r	1r	1r	4r	1r	1r
4F#'	4fn'	.	.	4r	.	.	.	(4bb-	.	.
(4BBn	(4B-	.	.	2r	.	.	.	4ddn)	.	.
4Gn)	4f#)	.	.	.	.	.	.	4r	.	.
=36	=36	=36	=36	=36	=36	=36	=36	=36	=36	=36
4r	4r	1r	1r	2r	1r	1r	1r	1r	1r	2eee-~
(4Fn	(4en	.	.	.	.	.	.	.	.	.
4An)	4g#)	.	.	4r	.	.	.	.	.	2r
4C#'	4cn'	.	.	4een'	.	.	.	.	.	.
=37	=37	=37	=37	=37	=37	=37	=37	=37	=37	=37
2r	4r	4r	1r	2.fffn	1r	1r	1r	1r	1r	1r
.	2An~	2g#~	.	.	.	.	.	.	.	.
2BBB-~	.	.	.	.	.	.	.	.	.	.
.	4Gn'	4f#'	.	4r	.	.	.	.	.	.
=38	=38	=38	=38	=38	=38	=38	=38	=38	=38	=38
2r	2r	1r	1r	1r	1r	1r	1r	1r	1r	(4dddn
.	.	.	.	.	.	.	.	.	.	4ee-)
4BBn'	4r	.	.	.	.	.	.	.	.	2r
(4A-	(4gn	.	.	.	.	.	.	.	.	.
=39	=39	=39	=39	=39	=39	=39	=39	=39	=39	=39
4En)	4e-)	1r	1r	2r	1r	1r	1r	1r	2cccn	1r
4r	4r	.	.	.	.	.	.	.	.	.
(4Dn	(4c#	.	.	4r	.	.	.	.	2r	.
4FF#)	4Fn)	.	.	(4b-	.	.	.	.	.	.
=40	=40	=40	=40	=40	=40	=40	=40	=40	=40	=40
4r	4r	1r	1r	2aan)	1r	1r	1r	2r	1r	1r
4GGG#'	4r	.	.	.	.	.	.	.	.	.
(4C#	(4cn	.	.	2r	.	.	.	4r	.	.
4FFn)	4En)	.	.	.	.	.	.	4ff#z'	.	.
!! poco rit. - -
=41	=41	=41	=41	=41	=41	=41	=41	=41	=41	=41
(4E-	(4dn	1r	1r	1r	1r	1r	2r	4r	1r	1r
4BBn)	4B-)	.	.	.	.	.	.	4gn'	.	.
2r	2r	.	.	.	.	.	4r	2r	.	.
.	.	.	.	.	.	.	4fnz'U	.	.	.
!! wieder etwas maessiger
=42	=42	=42	=42	=42	=42	=42	=42	=42	=42	=42
2r	2r	2r	1r	1r	2r	1r	4r	1r	1r	1r
.	.	.	.	.	.	.	4en'U	.	.	.
4r	4r	4r	.	.	2g#~U	.	2r	.	.	.
4C#z'	4Anz'	4cnz'	.	.	.	.	.	.	.	.
=43	=43	=43	=43	=43	=43	=43	=43	=43	=43	=43
4r	4r	4r	1r	1r	1r	1r	2r	1r	1r	1r
4BBn'	4Dn'	4B-'	.	.	.	.	.	.	.	.
2r	2r	2r	.	.	.	.	4f#z'U	.	.	.
.	.	.	.	.	.	.	4r	.	.	.
=44	=44	=44	=44	=44	=44	=44	=44	=44	=44	=44
2r	2r	2r	1r	1r	4r	1r	4gn'U	1r	1r	1r
.	.	.	.	.	2e-~U	.	4r	.	.	.
4FFn'	4C#'	4En'	.	.	.	.	2r	.	.	.
4r	4r	4r	.	.	4r	.	.	.	.	.
=45	=45	=45	=45	=45	=45	=45	=45	=45	=45	=45
4AAn'	4Cn'	4G#'	1r	1r	1r	4r	1r	1r	1r	1r
4r	4r	4r	.	.	.	4gn'U	.	.	.	.
2r	2r	2r	.	.	.	4r	.	.	.	.
.	.	.	.	.	.	4Bn'U	.	.	.	.
=46	=46	=46	=46	=46	=46	=46	=46	=46	=46	=46
4r	4r	4r	1r	1r	1r	4r	1r	1r	1r	1r
4EE-'	4GG-'	4Dn'	.	.	.	4b-'U	.	.	.	.
4r	4r	4r	.	.	.	2r	.	.	.	.
4AAn'	4Cn'	4G#'	.	.	.	.	.	.	.	.
=47	=47	=47	=47	=47	=47	=47	=47	=47	=47	=47
1r	1r	1r	1r	1r	1r	1r	4c#'U	1r	1r	r
.	.	.	.	.	.	.	4r	.	.	.
.	.	.	.	.	.	.	4Fn'U	.	.	.
.	.	.	.	.	.	.	4r	.	.	.
=48	=48	=48	=48	=48	=48	=48	=48	=48	=48	=48
4EE-'	4GG-'	4Dn'	2r	1r	1r	1r	4en'U	1r	1r	1r
4r	4r	4r	.	.	.	.	4r	.	.	.
4BBn'	4Gn'	4B-'	4r	.	.	.	2r	.	.	.
4r	4r	4r	(4Fn	.	.	.	.	.	.	.
=49	=49	=49	=49	=49	=49	=49	=49	=49	=49	=49
2r	2r	2r	4c#)	4r	1r	1r	1r	1r	1r	1r
.	.	.	4ddn'	4An'	.	.	.	.	.	.
4r	4r	4r	2r	(4b-	.	.	.	.	.	.
4GG#'	4BBn'	4Gn'	.	4gg-)	.	.	.	.	.	.
=50	=50	=50	=50	=50	=50	=50	=50	=50	=50	=50
4r	4r	4r	1r	1r	1r	1r	1r	1r	1r	2r
4En'	4cn'	4e-'	.	.	.	.	.	.	.	.
2r	2r	2r	.	.	.	.	.	.	.	4gggn'
.	.	.	.	.	.	.	.	.	.	(4gg#
=51	=51	=51	=51	=51	=51	=51	=51	=51	=51	=51
2r	2r	2r	1r	1r	1r	1r	1r	(4d#	1r	4een)
.	.	.	.	.	.	.	.	4Bn)	.	4r
4Dnz'	4B-z'	4d-z'	.	.	.	.	.	4ccn'	.	2r
4r	4r	4r	.	.	.	.	.	4r	.	.
=52	=52	=52	=52	=52	=52	=52	=52	=52	=52	=52
4F#'	4An'	4fn'	1r	1r	4r	1r	2r	1r	1r	1r
4r	4r	4r	.	.	2C#~U	.	.	.	.	.
2r	2r	2r	.	.	.	.	4r	.	.	.
.	.	.	.	.	4r	.	(4cn	.	.	.
=53	=53	=53	=53	=53	=53	=53	=53	=53	=53	=53
2r	2r	2r	1r	1r	2fn~U	1r	4En)	1r	1r	1r
.	.	.	.	.	.	.	4r	.	.	.
4r	4r	4r	.	.	2r	.	(4An	.	.	.
4Gn'	4B-'	4f#'	.	.	.	.	4g#)	.	.	.
=54	=54	=54	=54	=54	=54	=54	=54	=54	=54	=54
4r	4r	4r	4r	2r	1r	1r	1r	1r	1r	1r
4E-'	4Bn'	4dn'	(4Gn	.	.	.	.	.	.	.
2r	2r	2r	4Bn)	4r	.	.	.	.	.	.
.	.	.	4b-'	4ee-'	.	.	.	.	.	.
!! poco rit. - - -
=55	=55	=55	=55	=55	=55	=55	=55	=55	=55	=55
4r	4r	4r	1r	(4dddn	1r	1r	1r	1r	1r	1r
4Fn'	4c#'	4en'	.	4ff#)	.	.	.	.	.	.
4r	4r	4r	.	2r	.	.	.	.	.	.
4AAn'	4Cn'	4G#'	.	.	.	.	.	.	.	.
!! tempo I. sehr flott
=56	=56	=56	=56	=56	=56	=56	=56	=56	=56	=56
1r	1r	1r	1r	1r	1r	1r	1r	4r	1r	1r
.	.	.	.	.	.	.	.	4Fn'	.	.
.	.	.	.	.	.	.	.	4r	.	.
.	.	.	.	.	.	.	.	4en'	.	.
=57	=57	=57	=57	=57	=57	=57	=57	=57	=57	=57
1r	1r	1r	1r	1r	1r	1r	1r	4r	4r	1r
.	.	.	.	.	.	.	.	4G#'	4an'	.
.	.	.	.	.	.	.	.	2r	4r	.
.	.	.	.	.	.	.	.	.	4c#'	.
=58	=58	=58	=58	=58	=58	=58	=58	=58	=58	=58
2r	2r	2r	1r	1r	1r	1r	1r	1r	4r	1r
.	.	.	.	.	.	.	.	.	4ccn'	.
4BBn'	4Dn'	4B-'	.	.	.	.	.	.	2r	.
8r	8r	8r	.	.	.	.	.	.	.	.
(8Gn	(8e-	(8f#	.	.	.	.	.	.	.	.
=59	=59	=59	=59	=59	=59	=59	=59	=59	=59	=59
4Fn)	4G#)	4en)	1r	1r	1r	4r	1r	1r	1r	1r
4r	4r	4r	.	.	.	4an'U	.	.	.	.
2r	2r	2r	.	.	.	4r	.	.	.	.
.	.	.	.	.	.	4c#'U	.	.	.	.
=60	=60	=60	=60	=60	=60	=60	=60	=60	=60	=60
4r	4r	4r	1r	1r	1r	4r	1r	1r	1r	1r
4Fn'	4G#'	4en'	.	.	.	4ccn'U	.	.	.	.
8r	8r	8r	.	.	.	2r	.	.	.	.
(8Gn	(8e-	(8f#	.	.	.	.	.	.	.	.
4BBn)	4Dn)	4B-)	.	.	.	.	.	.	.	.
=61	=61	=61	=61	=61	=61	=61	=61	=61	=61	=61
1r	1r	1r	4r	1r	1r	1r	1r	1r	1r	1r
.	.	.	4f#"	.	.	.	.	.	.	.
.	.	.	4r	.	.	.	.	.	.	.
.	.	.	4Gn"	.	.	.	.	.	.	.
=62	=62	=62	=62	=62	=62	=62	=62	=62	=62	=62
1r	1r	1r	4r	1r	1r	1r	4r	1r	1r	1r
.	.	.	4e-"	.	.	.	4FnU	.	.	.
.	.	.	2r	.	.	.	4r	.	.	.
.	.	.	.	.	.	.	4en'U	.	.	.
=63	=63	=63	=63	=63	=63	=63	=63	=63	=63	=63
2r	2r	2r	1r	1r	1r	1r	4r	1r	1r	1r
.	.	.	.	.	.	.	4G#'U	.	.	.
4c#'	4an'	4ccn'	.	.	.	.	2r	.	.	.
8r	8r	8r	.	.	.	.	.	.	.	.
(8Fn	(8G#	(8en	.	.	.	.	.	.	.	.
=64	=64	=64	=64	=64	=64	=64	=64	=64	=64	=64
4Gn)	4e-)	4f#)	1r	1r	4r	1r	1r	1r	1r	1r
4r	4r	4r	.	.	4Dn'U	.	.	.	.	.
2r	2r	2r	.	.	4r	.	.	.	.	.
.	.	.	.	.	4B-'U	.	.	.	.	.
=65	=65	=65	=65	=65	=65	=65	=65	=65	=65	=65
4r	4r	4r	1r	1r	4r	1r	1r	1r	1r	1r
4Gn'	4e-'	4f#'	.	.	4BBn'U	.	.	.	.	.
8r	8r	8r	.	.	2r	.	.	.	.	.
(8Fn	(8G#	(8en	.	.	.	.	.	.	.	.
4c#)	4an)	4ccn)	.	.	.	.	.	.	.	.
=66	=66	=66	=66	=66	=66	=66	=66	=66	=66	=66
1r	1r	1r	1r	1r	1r	1r	4r	1r	1r	1r
.	.	.	.	.	.	.	4Fn'U	.	.	.
.	.	.	.	.	.	.	4r	.	.	.
.	.	.	.	.	.	.	4en'U	.	.	.
=67	=67	=67	=67	=67	=67	=67	=67	=67	=67	=67
1r	1r	1r	1r	4r	1r	1r	4r	1r	1r	1r
.	.	.	.	4f#"	.	.	4G#'U	.	.	.
.	.	.	.	4r	.	.	2r	.	.	.
.	.	.	.	4Gn"	.	.	.	.	.	.
=68	=68	=68	=68	=68	=68	=68	=68	=68	=68	=68
4r	4r	4r	1r	4r	1r	1r	1r	1r	1r	1r
4BBn'	4Dn'	4B-'	.	4e-"	.	.	.	.	.	.
8r	8r	8r	.	2r	.	.	.	.	.	.
(8Gn	(8e-	(8f#	.	.	.	.	.	.	.	.
4Fn)	4G#)	4en)	.	.	.	.	.	.	.	.
=69	=69	=69	=69	=69	=69	=69	=69	=69	=69	=69
2r	2r	2r	1r	1r	1r	1r	1r	4r	4r	4r
.	.	.	.	.	.	.	.	4c#z'	4ccnz'	4anz'
8r	8r	8r	.	.	.	.	.	2r	2r	2r
(8Fn	(8G#	(8en	.	.	.	.	.	.	.	.
4Gn)	4e-)	4f#)	.	.	.	.	.	.	.	.
=70	=70	=70	=70	=70	=70	=70	=70	=70	=70	=70
8r	8r	8r	1r	1r	2r	2r	2r	1r	1r	1r
(8BBn	(8Dn	(8B-	.	.	.	.	.	.	.	.
4c#)	4an)	4ccn)	.	.	.	.	.	.	.	.
2r	2r	2r	.	.	4r	4r	4r	.	.	.
.	.	.	.	.	4Fnz'U	4enz'U	4G#z'U	.	.	.
==	==	==	==	==	==	==	==	==	==	==
*-	*-	*-	*-	*-	*-	*-	*-	*-	*-	*-
!!!ODE: Arnold Schoenberg (60th birthday)
!!!CDT: 1993/12/3-1945/9/15
!!!CNT: Oesterreicher
!!!AFR: serial; 12-tone
!!!AST: serial
!!!AGN: chamber
!!!AMT: simple duple
!!!AIN: clars cor flt oboe piano tromb tromp viola violn
!!!AGN: chamber
!!!ODT: 1931/-1934/
!!!EED: Brian Alegant
!!!ENC: David Huron
!!!EEV: 1.0
!!!RDT: 1995 June 2
!!!YED: 1995 September 15
!!!EFL: 3/3
!!!YEN: Canada
!!!EST: Missing stem directions and beaming.
!!!VTS: 161877531
